app/src/main/assets/symbols/osmc/tower.svg

<?xml version="1.0" encoding="UTF-8" standalone="no"?>
<svg
   xmlns:dc="http://purl.org/dc/elements/1.1/"
   xmlns:cc="http://creativecommons.org/ns#"
   xmlns:rdf="http://www.w3.org/1999/02/22-rdf-syntax-ns#"
   xmlns:svg="http://www.w3.org/2000/svg"
   xmlns="http://www.w3.org/2000/svg"
   xmlns:sodipodi="http://sodipodi.sourceforge.net/DTD/sodipodi-0.dtd"
   xmlns:inkscape="http://www.inkscape.org/namespaces/inkscape"
   viewBox="0 0 32 32"
   version="1.1"
   id="svg4167"
   height="32"
   width="32"
   sodipodi:docname="tower.svg"
   inkscape:version="0.92.1 r15371">
  <sodipodi:namedview
     pagecolor="#ffffff"
     bordercolor="#666666"
     borderopacity="1"
     objecttolerance="10"
     gridtolerance="10"
     guidetolerance="10"
     inkscape:pageopacity="0"
     inkscape:pageshadow="2"
     inkscape:window-width="2560"
     inkscape:window-height="1016"
     id="namedview6501"
     showgrid="false"
     inkscape:zoom="7.375"
     inkscape:cx="16"
     inkscape:cy="16"
     inkscape:window-x="0"
     inkscape:window-y="27"
     inkscape:window-maximized="1"
     inkscape:current-layer="svg4167" />
  <defs
     id="defs4169" />
  <metadata
     id="metadata4172">
    <rdf:RDF>
      <cc:Work
         rdf:about="">
        <dc:format>image/svg+xml</dc:format>
        <dc:type
           rdf:resource="http://purl.org/dc/dcmitype/StillImage" />
        <dc:title />
      </cc:Work>
    </rdf:RDF>
  </metadata>
  <g
     id="layer1"
     transform="matrix(0.8,0,0,0.8,3.2,3.2)">
    <path
       d="M 26,1 H 22.647969 V 4.9231146 H 20.451027 V 1 H 17.098995 V 4.9231146 H 14.901704 V 1 H 11.549673 V 4.9231146 H 9.3523809 L 9.3523809,1 H 6 V 5.9616271 H 7.7925732 V 31 H 24.208127 V 5.9616271 H 26 Z m -8.323634,18.300426 h -3.352382 v -4.961279 h 3.352382 z"
       id="path5052"
       inkscape:connector-curvature="0" />
  </g>
</svg>

<?xml version="1.0" encoding="UTF-8"?>
<svg id="svg4167" width="32" height="32" version="1.1" viewBox="0 0 32 32" xmlns="http://www.w3.org/2000/svg" xmlns:cc="http://creativecommons.org/ns#" xmlns:dc="http://purl.org/dc/elements/1.1/" xmlns:rdf="http://www.w3.org/1999/02/22-rdf-syntax-ns#">
 <metadata id="metadata4172">
  <rdf:RDF>
   <cc:Work rdf:about="">
    <dc:format>image/svg+xml</dc:format>
    <dc:type rdf:resource="http://purl.org/dc/dcmitype/StillImage"/>
    <dc:title/>
   </cc:Work>
  </rdf:RDF>
 </metadata>
 <g id="layer1" transform="matrix(.8 0 0 .8 3.2 3.2)">
  <path id="path5052" d="m26 1h-3.352v3.9231h-2.1969v-3.9231h-3.352v3.9231h-2.1973v-3.9231h-3.352v3.9231h-2.1973v-3.9231h-3.3524v4.9616h1.7926v25.038h16.416v-25.038h1.7919zm-8.3236 18.3h-3.3524v-4.9613h3.3524z"/>
 </g>
</svg>
